src/Pure-Dark/16/symbolic/status/timer-symbolic.svg

<?xml version="1.0" encoding="UTF-8" standalone="no"?>
<svg
   width="16"
   height="16"
   version="1.1"
   id="svg1"
   sodipodi:docname="timer-symbolic.svg"
   inkscape:version="1.4.2 (ebf0e940d0, 2025-05-08)"
   xmlns:inkscape="http://www.inkscape.org/namespaces/inkscape"
   xmlns:sodipodi="http://sodipodi.sourceforge.net/DTD/sodipodi-0.dtd"
   xmlns="http://www.w3.org/2000/svg"
   xmlns:svg="http://www.w3.org/2000/svg">
  <defs
     id="defs1">
     <style
        id="current-color-scheme"
        type="text/css">
        .ColorScheme-Text { color:#f2f2f2; }
     </style>
  </defs>
  <sodipodi:namedview
     id="namedview1"
     pagecolor="#ffffff"
     bordercolor="#000000"
     borderopacity="0.25"
     inkscape:showpageshadow="2"
     inkscape:pageopacity="0.0"
     inkscape:pagecheckerboard="0"
     inkscape:deskcolor="#d1d1d1"
     inkscape:zoom="24.84375"
     inkscape:cx="4.8503145"
     inkscape:cy="9.7610063"
     inkscape:window-width="1920"
     inkscape:window-height="1010"
     inkscape:window-x="0"
     inkscape:window-y="0"
     inkscape:window-maximized="1"
     inkscape:current-layer="svg1" />
  <path
     id="path1"
     style="opacity:1;fill:currentColor"
     class="ColorScheme-Text"
     d="M 3 0 C 2.446 0 2 0.446 2 1 C 2 1.554 2.446 2 3 2 L 3 3 C 3 5.0554 4.2347 6.8019656 6 7.5722656 L 6 8.4277344 C 4.2347 9.1979544 3 10.9446 3 13 L 3 14 C 2.446 14 2 14.446 2 15 C 2 15.554 2.446 16 3 16 L 13 16 C 13.554 16 14 15.554 14 15 C 14 14.446 13.554 14 13 14 L 13 13 C 13 10.9446 11.7653 9.1980344 10 8.4277344 L 10 7.5722656 C 11.7653 6.8020456 13 5.0554 13 3 L 13 2 C 13.554 2 14 1.554 14 1 C 14 0.446 13.554 0 13 0 L 3 0 z M 4 2 L 12 2 L 12 3 C 12 4.8686 10.7263 6.4176281 9 6.8613281 L 9 7.9003906 L 9 8.0996094 L 9 9.1386719 C 10.7263 9.5823619 12 11.1315 12 13 L 12 14 L 10 14 L 10 13 A 2 2 0 0 0 8 11 A 2 2 0 0 0 7.9511719 11 A 2 2 0 0 0 6 13 A 2 2 0 0 0 6 13.048828 L 6 14 L 4 14 L 4 13 C 4 11.1314 5.2737 9.5823719 7 9.1386719 L 7 9 L 7 7.9003906 L 7 6.8613281 C 5.2737 6.4176381 4 4.8685 4 3 L 4 2 z M 5.1738281 4 A 3 3 0 0 0 8 6 A 3 3 0 0 0 10.828125 4 L 5.1738281 4 z " />
</svg>

<svg width="16" height="16" version="1.1" xmlns="http://www.w3.org/2000/svg">
 <path d="m3 0c-0.554 0-1 0.446-1 1s0.446 1 1 1v1c0 2.0554 1.2347 3.802 3 4.5723v0.85547c-1.7653 0.77022-3 2.5169-3 4.5723v1c-0.554 0-1 0.446-1 1s0.446 1 1 1h10c0.554 0 1-0.446 1-1s-0.446-1-1-1v-1c0-2.0554-1.2347-3.802-3-4.5723v-0.85547c1.7653-0.77022 3-2.5169 3-4.5723v-1c0.554 0 1-0.446 1-1s-0.446-1-1-1h-10zm1 2h8v1c0 1.8686-1.2737 3.4176-3 3.8613v1.0391 0.19922 1.0391c1.7263 0.44369 3 1.9928 3 3.8613v1h-2v-1a2 2 0 0 0-2-2 2 2 0 0 0-0.048828 0 2 2 0 0 0-1.9512 2 2 2 0 0 0 0 0.048828v0.95117h-2v-1c0-1.8686 1.2737-3.4176 3-3.8613v-0.13867-1.0996-1.0391c-1.7263-0.44369-3-1.9928-3-3.8613v-1zm1.1738 2a3 3 0 0 0 2.8262 2 3 3 0 0 0 2.8281-2h-5.6543z" fill="#f2f2f2" stroke-width=".8165"/>
</svg>
